!!!OTL: Die Bluthochzeit.
!!!OTL-incipit: Es fuhr sich ein Pfalzgraf wohl ueber den Rhein,
!!!ARE: Europa, Mitteleuropa, Deutschland (BRD), Rheinprovinz, Grafschaft Berg
!!!YOR: 2, S. 169
!!    1830 aufgezeichnet (ca.)
!!!SCT: Q0046C
!!!TXL: @@DE
!!!YEM: Copyright 1995, estate of Helmut Schaffrath.
**kern	**text
*ICvox	*
*M2/4	*
*k[b-e-]	*
*g:	*
!LO:TX:a:t=Grafſchaft Berg, um 1830.	!
{8a	Es
=1	=1
4dd	fuhr
8dd	ſich
8ee	ein
=2	=2
4ff	Pfalʒgraf
8ee	.
8dd	wohl
=3	=3
8eeL	ü-
8ffJ	.
8ee	-ber
8dd	den
=4	=4
(8ddqq	.
4.cc)}	Rhein,
{8dd	viel
=5	=5
4dd	Roß
8aL	und
8b-J	.
=6	=6
4cc	Jä-
8cc	-ger
8b-	wohl
=7	=7
4a	um
8b-L	ihn
8aJ	.
=8	=8
4g	ſein.
8r}	.
==	==
!!!AGN: Ballade, Entfuehrung, Mord, Vergeltung
!! Variante des Nachsatzes von Q0046A. Verzierung (Vorschlag) in der
!!    ersten Zeile.
!!!ONB: ESAC (Essen Associative Code) Database: BALLADE
!!!AMT: simple duple
!!!AIN: vox
!!!EED: Helmut Schaffrath
!!!EEV: 1.0
!!!source: Deutsche Volkslieder mit ihren Melodien. Herausgegeben vom Deutschen Volksliedarchiv. Zweiter Band Balladen. Berlin 1939.
!!!page: 169
!!!ENC: Anna Maria Matuszewska
!!!EEV: 2025/02/17
*-	*-
